X: 462
T: Bâde-i Vuslat İçilsin
C: Faize Ergin
O: Turkey
F: http://compmusic.upf.edu/node/140
N: sedaraban--sarki--devrihindi--bade-i_vuslat--faize_ergin
N: makam= sedaraban
N: form= sarki
N: usul= devrihindi = 7/4
M: 7/4
L: 1/16
K: C _7/8B _7/8e ^f ^c
Q: 1/4=78
%%MIDI tuningsystem comma53
dedc d4 f4 e2de d2c2 B3A G4  | dedc d4 f4 e2de d2c2 B3c d4  | 
w:  ARANAĞME  |   | 
G3A _B2=c2 d4 c2de d2c2 B3A G4  | \
w:   | 
F2G2 A4 G2F2 E3D FEED D4 z4  | 
w:   | 
dedc d4 f4 e2de d2c2 B3A G4  | dedc d4 f4 e2de d2c2 B3c d4  | 
w:  ARANAĞME  |   | 
G3A _B2=c2 d4 c2de d2c2 B3A G4  | \
w:   | 
F2G2 A4 G2F2 E3D FEED D4 z4  | 
w:   | 
d8 e2f2 e3d c2e2 d8  | A4 B4 A2G2 F2G2 A2{B}AG G8  | \
w:  Bâ de  *  i  *  *  *  vus  |  lat_ *  i *  çil *  *  *  *  *  sin   | 
d3f e4 d4 c3e d2c2 B3A G4  | 
w:  kâ *  *  se  i  *  *  *  fağ  | 
g4 f2e2 e2d2 d3c B2c2 d8  | d2g2 f2e2 d2c2 B3A G2F2 G8  | 
w:  fur *  *  *  *  *  *  *  *  dan    |  SAZ  | 
d8 e2f2 e3d c2e2 d8  | A4 B4 A2G2 F2G2 A2{B}AG G8  | \
w:  Bâ de  *  i  *  *  *  vus  |  lat_ *  i *  çil *  *  *  *  *  sin   | 
d3f e4 d4 c3e d2c2 B3A G4  | 
w:  kâ *  *  se  i  *  *  *  fağ  | 
g4 f2e2 e2d2 d3c B2c2 d8  | d2g2 f2e2 d2c2 B3A B2c2 d8  | 
w:  fur *  *  *  *  *  *  *  *  dan    |  SAZ  | 
c2d2 e3d c2e2 d3c B2d2 c3B A2c2  | \
w:  Bir  *  *  *  i *  lâ *  *  *  hî   | 
B3A G4 A2B2 A2G2 {A}G2A2 GGFE F4  | 
w:  neş *  *  e  *  doğ *  *  *  *  sun   | 
A8 G2A2 B2c2 A2G2 F3E D4  | G8 F2E2 F2E2 D2C2 D8  | \
w:  nağ me  *  i  *  *  *  tan  |  bur *  *  *  *  *  *  dan    | 
d2g2 f2e2 d2c2 B3A B2c2 d8  | 
w:  SAZ  | 
c2d2 e3d c2e2 d3c B2d2 c3B A2c2  | \
w:  Bir  *  *  *  i *  lâ *  *  *  hî   | 
B3A G4 A2B2 A2G2 {A}G2A2 GGFE F4  | 
w:  neş *  *  e  *  doğ *  *  *  *  sun   | 
A8 G2A2 B2c2 A2G2 F3E D4  | G8 F2E2 F2E2 D2C2 D8  | \
w:  nağ me  *  i  *  *  *  tan  |  bur *  *  *  *  *  *  dan    | 
d3e f2g2 a2b2 a2g2 {a}g2f2 g8  | 
w:  SAZ  | 
g14a2 g2f2 e3d =c4  | _1/4B2=c2 d2e2 f2g2 a2_ba g2f2 g4 =c'4  | \
w:  Cûy lar  *  *  fer  |  yâd_ *  *  *  e *  der *  *  *  *  ken   | 
=c'2_b2 b2a2 a2g4g4a2 f3e d4  | 
w:  bahr_ *  *  *  i  *  dû *  râ  | 
=c'4 _b2a2 a2g2 g3f =e2f2 g8  | g2=c'2 _b2a2 a2g2 g3f =e2f2 g8  | 
w:  dûr *  *  *  *  *  *  *  *  dan    |  SAZ  | 
=f3a g4 f2_1/4e4d4e2 f4 g4  | g2=f2 f2_e2 e2d2 d2=c2 c2B2 c4 g4  | 
w:  Cûy *  *  *  *  lar  *  fer  |  yâd_ *  *  *  e *  der *  *  *  ken   | 
g2=f2 f2_e2 e2d2 d2=c2 c2d2 _B3_A G4  | \
w:  bahr_ *  *  *  i  *  dû *  *  *  râ  | 
g4 f2e2 e2d2 d3c B2c2 d8  | 
w:  dûr *  *  *  *  *  *  *  *  dan    | 
d2g2 f2e2 d2c2 B3A B2c2 d8  | c2d2 e3d c2e2 d3c B2d2 c3B A2c2  | 
w:  SAZ  |  Bir  *  *  *  i *  lâ *  *  *  hî   | 
B3A G4 A2B2 A2G2 {A}G2A2 GGFE F4  | \
w:  neş *  *  e  *  doğ *  *  *  *  sun   | 
A8 G2A2 B2c2 A2G2 F3E D4  | 
w:  nağ me  *  i  *  *  *  tan  | 
G8 F2E2 F2E2 D2C2 D8  | |


